!!!OTL: Xiu4 he2 ba1o
!!!ARE: Asia, Ostasien, China, Sha1nxi1
!! Ethnic Group: Ha4nzu2
!!!SCT: C0037
!!!YEM: Copyright 1995, estate of Helmut Schaffrath.
**kern
*ICvox
*Ivox
*M2/4
*k[f#c#]
*D:
{8dd
8dd
8gg
8aa
=1
16dd
16ccn
4.dd
=2
16gg
8dd
16ee
16dd
16ccn
8a
=3
2g}
=4
{8a
4dd
8gg
=5
16dd
16ee
16ccn
16a
4g
=6
8ccn
16ccn
16a
16g
16a
8e
=7
2d}
==
!!!AGN: Liebes - Lied
!!!ONB: ESAC (Essen Associative Code) Database: CHINA
!!!AMT: simple duple
!!!AIN: vox
!!!EED: Helmut Schaffrath
!!!EEV: 1.0
*-
